Newaita-dark/apps/24/preferences-desktop-theme-global.svg

<svg height="24" viewBox="0 0 24 24" width="24" xmlns="http://www.w3.org/2000/svg" xmlns:xlink="http://www.w3.org/1999/xlink"><linearGradient id="a" gradientUnits="userSpaceOnUse" x1="11.411244" x2="11.411244" y1="21.02545025" y2="22.01773325002"><stop offset="0" stop-opacity=".27451"/><stop offset="1" stop-opacity="0"/></linearGradient><linearGradient id="b"><stop offset="0" stop-opacity=".313726"/><stop offset=".222222" stop-opacity=".27451"/><stop offset="1" stop-opacity="0"/></linearGradient><radialGradient id="c" cx="450.908936" cy="189.579361" gradientTransform="matrix(.00000013 -.0585994 -.105479 -.00000008 40.090266 47.696499)" gradientUnits="userSpaceOnUse" r="21.166656" xlink:href="#b"/><radialGradient id="d" cx="450.908936" cy="189.579361" gradientTransform="matrix(-.00000013 .0585994 .105479 .00000008 -16.27549 -5.645609)" gradientUnits="userSpaceOnUse" r="21.166656" xlink:href="#b"/><radialGradient id="e" cx="450.908936" cy="189.579361" gradientTransform="matrix(-.00000013 -.0585994 .105479 -.00000008 -16.27549 47.696499)" gradientUnits="userSpaceOnUse" r="21.166656" xlink:href="#b"/><radialGradient id="f" cx="450.908936" cy="189.579361" gradientTransform="matrix(.00000013 .0585994 -.105479 .00000008 40.090265 -5.64561)" gradientUnits="userSpaceOnUse" r="21.166656" xlink:href="#b"/><linearGradient id="g" gradientTransform="matrix(.0540552 0 0 .14297 -3.681905 23.382369)" gradientUnits="userSpaceOnUse" x1="306.752655" x2="305.954529" y1="-16.485477" y2="-141.414581"><stop offset="0" stop-color="#b0bec5"/><stop offset="1" stop-color="#cfd8dc"/></linearGradient><linearGradient id="h" gradientUnits="userSpaceOnUse" x1="11.907393" x2="11.907393" y1="21.02545025" y2="3.16436075"><stop offset="0" stop-color="#5c6bc0"/><stop offset="1" stop-color="#7986cb"/></linearGradient><linearGradient id="i" gradientTransform="matrix(.0565122 0 0 .163059 -4.39051 25.231011)" gradientUnits="userSpaceOnUse" x1="306.916656" x2="305.954559" y1="-25.791676" y2="-135.329163"><stop offset="0" stop-color="#bdbdbd"/><stop offset="1" stop-color="#e0e0e0"/></linearGradient><linearGradient id="j" gradientTransform="matrix(.0565122 0 0 .163059 -4.39051 25.231011)" gradientUnits="userSpaceOnUse" x1="306.916656" x2="305.954559" y1="-25.791676" y2="-135.329163"><stop offset="0" stop-color="#424242"/><stop offset="1" stop-color="#616161"/></linearGradient><linearGradient id="k" gradientUnits="userSpaceOnUse" x1="333.37490975" x2="333.37490975" y1="-121.04159891667" y2="-89.29164525"><stop offset="0" stop-color="#66bb6a"/><stop offset="1" stop-color="#81c784"/></linearGradient><linearGradient id="l" gradientUnits="userSpaceOnUse" x1="386.29151025" x2="386.29151025" y1="-121.04167508333" y2="-89.29163675"><stop offset="0" stop-color="#ffd54f"/><stop offset="1" stop-color="#ffe082"/></linearGradient><linearGradient id="m" gradientUnits="userSpaceOnUse" x1="439.208298" x2="439.208298" y1="-121.041687" y2="-89.291691"><stop offset="0" stop-color="#e57373"/><stop offset="1" stop-color="#ef9a9a"/></linearGradient><path d="m3.472656 21.082031h16.867188v.9375h-16.867188zm0 0" fill="url(#a)"/><path d="m20.339844 21.027344h1.988281v-.996094h-1.988281zm0 0" fill="url(#c)"/><path d="m3.472656 21.027344h-1.984375v.992187h1.984375zm0 0" fill="url(#d)"/><path d="m3.472656 21.027344h-1.984375v-.996094h1.984375zm0 0" fill="url(#e)"/><path d="m20.339844 21.027344h1.988281v.992187h-1.988281zm0 0" fill="url(#f)"/><path d="m2.480469 3.164062h18.855469c.546874 0 .992187.417969.992187.9375v15.988282c0 .515625-.445313.9375-.992187.9375h-18.855469c-.546875 0-.992188-.421875-.992188-.9375v-15.988282c0-.519531.445313-.9375.992188-.9375zm0 0" fill="url(#g)"/><path d="m2.976562 4.15625h17.863282c.273437 0 .496094.222656.496094.496094v14.882812c0 .277344-.222657.496094-.496094.496094h-17.863282c-.273437 0-.496093-.21875-.496093-.496094v-14.882812c0-.273438.222656-.496094.496093-.496094zm0 0" fill="url(#h)"/><path d="m2.480469 3.164062c-.550781 0-.992188.417969-.992188.9375v.246094c0-.515625.441407-.933594.992188-.933594h18.855469c.546874 0 .992187.417969.992187.933594v-.246094c0-.519531-.445313-.9375-.992187-.9375zm0 0" fill="#fff" fill-opacity=".588235"/><path d="m2.480469 21.03125c-.550781 0-.992188-.417969-.992188-.9375v-.246094c0 .519532.441407.9375.992188.9375h18.855469c.546874 0 .992187-.417968.992187-.9375v.246094c0 .519531-.445313.9375-.992187.9375zm0 0" fill-opacity=".235294"/><path d="m2.976562 4.21875c-.273437 0-.496093.222656-.496093.496094v.1875c0-.277344.222656-.496094.496093-.496094h17.863282c.273437 0 .496094.21875.496094.496094v-.1875c0-.273438-.222657-.496094-.496094-.496094zm0 0" fill-opacity=".235294"/><path d="m2.976562 20.285156c-.273437 0-.496093-.21875-.496093-.496094v-.183593c0 .273437.222656.496093.496093.496093h17.863282c.273437 0 .496094-.222656.496094-.496093v.183593c0 .277344-.222657.496094-.496094.496094zm0 0" fill="#fff" fill-opacity=".588235"/><path d="m63.493937-126.3418h381.046945c5.832776 0 10.582323 4.749547 10.582323 10.582323v317.469683c0 5.916102-4.749547 10.582323-10.582323 10.582323h-381.046945c-5.832777 0-10.582323-4.666221-10.582323-10.582323v-317.469683c0-5.832776 4.749546-10.582323 10.582323-10.582323zm0 0" fill="none" stroke="#212121" stroke-linecap="round" stroke-linejoin="round" stroke-width="3" transform="matrix(.0468795 0 0 .0468795 0 10.079087)"/><path d="m2.976562 4.15625c-.273437 0-.496093.222656-.496093.496094v4.027344c5.539062-.695313 11.320312-1.0625 17.269531-1.0625.527344 0 1.058594.003906 1.585938.011718v-2.976562c0-.273438-.222657-.496094-.496094-.496094zm0 0" fill="#fff" fill-opacity=".078431"/><path d="m1.488281 7.132812h20.839844v.496094h-20.839844zm0 0" fill="#0a0d0e" fill-opacity=".235294"/><path d="m2.480469 3.164062c-.550781 0-.992188.441407-.992188.992188v2.976562h20.839844v-2.976562c0-.550781-.445313-.992188-.992187-.992188zm0 0" fill="url(#i)"/><path d="m11.90625 3.164062v3.96875h10.421875v-2.976562c0-.550781-.445313-.992188-.992187-.992188zm0 0" fill="url(#j)"/><path d="m2.480469 3.222656c-.550781 0-.992188.441406-.992188.992188v.257812c0-.550781.441407-.992187.992188-.992187h18.855469c.546874 0 .992187.441406.992187.992187v-.257812c0-.550782-.445313-.992188-.992187-.992188zm0 0" fill="#fff" fill-opacity=".392157"/><g transform="matrix(.0468795 0 0 .0468795 0 10.079087)"><path d="m333.38483-121.008976c8.749165 0 15.831821 7.082657 15.831821 15.831822 0 8.749164-7.082656 15.915147-15.831821 15.915147-8.749164 0-15.915147-7.165983-15.915147-15.915147 0-8.749165 7.165983-15.831822 15.915147-15.831822zm0 0" fill="url(#k)" stroke="#212121" stroke-linecap="round" stroke-width="3"/><path d="m386.296444-121.008976c8.749164 0 15.831821 7.082657 15.831821 15.831822 0 8.749164-7.082657 15.915147-15.831821 15.915147-8.749165 0-15.915147-7.165983-15.915147-15.915147 0-8.749165 7.165982-15.831822 15.915147-15.831822zm0 0" fill="url(#l)" stroke="#212121" stroke-linecap="round" stroke-width="3"/><path d="m439.208058-121.008976c8.749164 0 15.915147 7.082657 15.915147 15.831822 0 8.749164-7.165983 15.915147-15.915147 15.915147-8.749165 0-15.915147-7.165983-15.915147-15.915147 0-8.749165 7.165982-15.831822 15.915147-15.831822zm0 0" fill="url(#m)" stroke="#212121" stroke-linecap="round" stroke-width="3"/><path d="m52.911614-147.506445h402.211591c11.665552 0 21.164645 8.915815 21.164645 19.99809v341.050765c0 10.998949-9.499093 19.99809-21.164645 19.99809h-402.211591c-11.665553 0-21.164646-8.999141-21.164646-19.99809v-341.050765c0-11.082275 9.499093-19.99809 21.164646-19.99809zm0 0" fill="none" stroke="#212121" stroke-linecap="round" stroke-width="3"/></g><path d="m2.480469 3.222656c-.550781 0-.992188.441406-.992188.992188v.257812c0-.550781.441407-.992187.992188-.992187h9.425781v-.257813zm0 0" fill="#fff"/><path d="m253.975747-62.847863v-84.658582" fill="none" stroke="#212121" stroke-width="1.414214" transform="matrix(.0468795 0 0 .0468795 0 10.079087)"/><path d="m31.746968-62.847863h444.540882" fill="none" stroke="#212121" stroke-width="3" transform="matrix(.0468795 0 0 .0468795 0 10.079087)"/></svg>

<?xml version="1.0" encoding="UTF-8"?>
<svg xmlns="http://www.w3.org/2000/svg" xmlns:xlink="http://www.w3.org/1999/xlink" width="24px" height="24px" viewBox="0 0 24 24" version="1.1">
<defs>
<linearGradient id="linear0" gradientUnits="userSpaceOnUse" x1="254" y1="233.5" x2="254" y2="254.666672" gradientTransform="matrix(0.0468795,0,0,0.0468795,-0.496149,10.079087)">
<stop offset="0" style="stop-color:rgb(0%,0%,0%);stop-opacity:0.27451;"/>
<stop offset="1" style="stop-color:rgb(0%,0%,0%);stop-opacity:0;"/>
</linearGradient>
<radialGradient id="radial0" gradientUnits="userSpaceOnUse" cx="450.908936" cy="189.579361" fx="450.908936" fy="189.579361" r="21.166656" gradientTransform="matrix(0.000000130628,-0.0585994,-0.105479,-0.0000000761539,40.090266,47.696499)">
<stop offset="0" style="stop-color:rgb(0%,0%,0%);stop-opacity:0.313726;"/>
<stop offset="0.222222" style="stop-color:rgb(0%,0%,0%);stop-opacity:0.27451;"/>
<stop offset="1" style="stop-color:rgb(0%,0%,0%);stop-opacity:0;"/>
</radialGradient>
<radialGradient id="radial1" gradientUnits="userSpaceOnUse" cx="450.908936" cy="189.579361" fx="450.908936" fy="189.579361" r="21.166656" gradientTransform="matrix(-0.000000130628,0.0585994,0.105479,0.0000000761539,-16.27549,-5.645609)">
<stop offset="0" style="stop-color:rgb(0%,0%,0%);stop-opacity:0.313726;"/>
<stop offset="0.222222" style="stop-color:rgb(0%,0%,0%);stop-opacity:0.27451;"/>
<stop offset="1" style="stop-color:rgb(0%,0%,0%);stop-opacity:0;"/>
</radialGradient>
<radialGradient id="radial2" gradientUnits="userSpaceOnUse" cx="450.908936" cy="189.579361" fx="450.908936" fy="189.579361" r="21.166656" gradientTransform="matrix(-0.000000130628,-0.0585994,0.105479,-0.0000000761539,-16.27549,47.696499)">
<stop offset="0" style="stop-color:rgb(0%,0%,0%);stop-opacity:0.313726;"/>
<stop offset="0.222222" style="stop-color:rgb(0%,0%,0%);stop-opacity:0.27451;"/>
<stop offset="1" style="stop-color:rgb(0%,0%,0%);stop-opacity:0;"/>
</radialGradient>
<radialGradient id="radial3" gradientUnits="userSpaceOnUse" cx="450.908936" cy="189.579361" fx="450.908936" fy="189.579361" r="21.166656" gradientTransform="matrix(0.000000130628,0.0585994,-0.105479,0.0000000761539,40.090265,-5.64561)">
<stop offset="0" style="stop-color:rgb(0%,0%,0%);stop-opacity:0.313726;"/>
<stop offset="0.222222" style="stop-color:rgb(0%,0%,0%);stop-opacity:0.27451;"/>
<stop offset="1" style="stop-color:rgb(0%,0%,0%);stop-opacity:0;"/>
</radialGradient>
<linearGradient id="linear1" gradientUnits="userSpaceOnUse" x1="306.752655" y1="-16.485477" x2="305.954529" y2="-141.414581" gradientTransform="matrix(0.0540552,0,0,0.14297,-3.681905,23.382369)">
<stop offset="0" style="stop-color:rgb(69.01961%,74.509805%,77.254903%);stop-opacity:1;"/>
<stop offset="1" style="stop-color:rgb(81.176472%,84.705883%,86.274511%);stop-opacity:1;"/>
</linearGradient>
<linearGradient id="linear2" gradientUnits="userSpaceOnUse" x1="254" y1="233.5" x2="254" y2="-147.5" gradientTransform="matrix(0.0468795,0,0,0.0468795,0,10.079087)">
<stop offset="0" style="stop-color:rgb(36.078432%,41.960785%,75.294119%);stop-opacity:1;"/>
<stop offset="1" style="stop-color:rgb(47.450981%,52.549022%,79.607844%);stop-opacity:1;"/>
</linearGradient>
<linearGradient id="linear3" gradientUnits="userSpaceOnUse" x1="306.916656" y1="-25.791676" x2="305.954559" y2="-135.329163" gradientTransform="matrix(0.0565122,0,0,0.163059,-4.39051,25.231011)">
<stop offset="0" style="stop-color:rgb(74.117649%,74.117649%,74.117649%);stop-opacity:1;"/>
<stop offset="1" style="stop-color:rgb(87.843138%,87.843138%,87.843138%);stop-opacity:1;"/>
</linearGradient>
<linearGradient id="linear4" gradientUnits="userSpaceOnUse" x1="306.916656" y1="-25.791676" x2="305.954559" y2="-135.329163" gradientTransform="matrix(0.0565122,0,0,0.163059,-4.39051,25.231011)">
<stop offset="0" style="stop-color:rgb(25.882354%,25.882354%,25.882354%);stop-opacity:1;"/>
<stop offset="1" style="stop-color:rgb(38.039216%,38.039216%,38.039216%);stop-opacity:1;"/>
</linearGradient>
<linearGradient id="linear5" gradientUnits="userSpaceOnUse" x1="349.25" y1="-158.083328" x2="349.25" y2="-115.75" gradientTransform="matrix(0.749999,0,0,0.749999,71.437759,-2.479261)">
<stop offset="0" style="stop-color:rgb(40.000001%,73.333335%,41.568628%);stop-opacity:1;"/>
<stop offset="1" style="stop-color:rgb(50.588238%,78.039217%,51.764709%);stop-opacity:1;"/>
</linearGradient>
<linearGradient id="linear6" gradientUnits="userSpaceOnUse" x1="349.25" y1="-158.083328" x2="349.25" y2="-115.75" gradientTransform="matrix(0.750001,0,0,0.750001,124.353661,-2.479021)">
<stop offset="0" style="stop-color:rgb(100%,83.529413%,30.980393%);stop-opacity:1;"/>
<stop offset="1" style="stop-color:rgb(100%,87.843138%,50.980395%);stop-opacity:1;"/>
</linearGradient>
<linearGradient id="linear7" gradientUnits="userSpaceOnUse" x1="349.25" y1="-158.083328" x2="349.25" y2="-115.75" gradientTransform="matrix(0.75,0,0,0.75,177.270798,-2.479191)">
<stop offset="0" style="stop-color:rgb(89.803922%,45.09804%,45.09804%);stop-opacity:1;"/>
<stop offset="1" style="stop-color:rgb(93.725491%,60.392159%,60.392159%);stop-opacity:1;"/>
</linearGradient>
</defs>
<g id="surface1">
<path style=" stroke:none;fill-rule:nonzero;fill:url(#linear0);" d="M 3.472656 21.082031 L 20.339844 21.082031 L 20.339844 22.019531 L 3.472656 22.019531 Z M 3.472656 21.082031 "/>
<path style=" stroke:none;fill-rule:nonzero;fill:url(#radial0);" d="M 20.339844 21.027344 L 22.328125 21.027344 L 22.328125 20.03125 L 20.339844 20.03125 Z M 20.339844 21.027344 "/>
<path style=" stroke:none;fill-rule:nonzero;fill:url(#radial1);" d="M 3.472656 21.027344 L 1.488281 21.027344 L 1.488281 22.019531 L 3.472656 22.019531 Z M 3.472656 21.027344 "/>
<path style=" stroke:none;fill-rule:nonzero;fill:url(#radial2);" d="M 3.472656 21.027344 L 1.488281 21.027344 L 1.488281 20.03125 L 3.472656 20.03125 Z M 3.472656 21.027344 "/>
<path style=" stroke:none;fill-rule:nonzero;fill:url(#radial3);" d="M 20.339844 21.027344 L 22.328125 21.027344 L 22.328125 22.019531 L 20.339844 22.019531 Z M 20.339844 21.027344 "/>
<path style=" stroke:none;fill-rule:nonzero;fill:url(#linear1);" d="M 2.480469 3.164062 L 21.335938 3.164062 C 21.882812 3.164062 22.328125 3.582031 22.328125 4.101562 L 22.328125 20.089844 C 22.328125 20.605469 21.882812 21.027344 21.335938 21.027344 L 2.480469 21.027344 C 1.933594 21.027344 1.488281 20.605469 1.488281 20.089844 L 1.488281 4.101562 C 1.488281 3.582031 1.933594 3.164062 2.480469 3.164062 Z M 2.480469 3.164062 "/>
<path style=" stroke:none;fill-rule:nonzero;fill:url(#linear2);" d="M 2.976562 4.15625 L 20.839844 4.15625 C 21.113281 4.15625 21.335938 4.378906 21.335938 4.652344 L 21.335938 19.535156 C 21.335938 19.8125 21.113281 20.03125 20.839844 20.03125 L 2.976562 20.03125 C 2.703125 20.03125 2.480469 19.8125 2.480469 19.535156 L 2.480469 4.652344 C 2.480469 4.378906 2.703125 4.15625 2.976562 4.15625 Z M 2.976562 4.15625 "/>
<path style=" stroke:none;fill-rule:nonzero;fill:rgb(100%,100%,100%);fill-opacity:0.588235;" d="M 2.480469 3.164062 C 1.929688 3.164062 1.488281 3.582031 1.488281 4.101562 L 1.488281 4.347656 C 1.488281 3.832031 1.929688 3.414062 2.480469 3.414062 L 21.335938 3.414062 C 21.882812 3.414062 22.328125 3.832031 22.328125 4.347656 L 22.328125 4.101562 C 22.328125 3.582031 21.882812 3.164062 21.335938 3.164062 Z M 2.480469 3.164062 "/>
<path style=" stroke:none;fill-rule:nonzero;fill:rgb(0%,0%,0%);fill-opacity:0.235294;" d="M 2.480469 21.03125 C 1.929688 21.03125 1.488281 20.613281 1.488281 20.09375 L 1.488281 19.847656 C 1.488281 20.367188 1.929688 20.785156 2.480469 20.785156 L 21.335938 20.785156 C 21.882812 20.785156 22.328125 20.367188 22.328125 19.847656 L 22.328125 20.09375 C 22.328125 20.613281 21.882812 21.03125 21.335938 21.03125 Z M 2.480469 21.03125 "/>
<path style=" stroke:none;fill-rule:nonzero;fill:rgb(0%,0%,0%);fill-opacity:0.235294;" d="M 2.976562 4.21875 C 2.703125 4.21875 2.480469 4.441406 2.480469 4.714844 L 2.480469 4.902344 C 2.480469 4.625 2.703125 4.40625 2.976562 4.40625 L 20.839844 4.40625 C 21.113281 4.40625 21.335938 4.625 21.335938 4.902344 L 21.335938 4.714844 C 21.335938 4.441406 21.113281 4.21875 20.839844 4.21875 Z M 2.976562 4.21875 "/>
<path style=" stroke:none;fill-rule:nonzero;fill:rgb(100%,100%,100%);fill-opacity:0.588235;" d="M 2.976562 20.285156 C 2.703125 20.285156 2.480469 20.066406 2.480469 19.789062 L 2.480469 19.605469 C 2.480469 19.878906 2.703125 20.101562 2.976562 20.101562 L 20.839844 20.101562 C 21.113281 20.101562 21.335938 19.878906 21.335938 19.605469 L 21.335938 19.789062 C 21.335938 20.066406 21.113281 20.285156 20.839844 20.285156 Z M 2.976562 20.285156 "/>
<path style="fill:none;stroke-width:3;stroke-linecap:round;stroke-linejoin:round;stroke:rgb(12.941177%,12.941177%,12.941177%);stroke-opacity:1;stroke-miterlimit:4;" d="M 63.493937 -126.3418 L 444.540882 -126.3418 C 450.373658 -126.3418 455.123205 -121.592253 455.123205 -115.759477 L 455.123205 201.710206 C 455.123205 207.626308 450.373658 212.292529 444.540882 212.292529 L 63.493937 212.292529 C 57.66116 212.292529 52.911614 207.626308 52.911614 201.710206 L 52.911614 -115.759477 C 52.911614 -121.592253 57.66116 -126.3418 63.493937 -126.3418 Z M 63.493937 -126.3418 " transform="matrix(0.0468795,0,0,0.0468795,0,10.079087)"/>
<path style=" stroke:none;fill-rule:nonzero;fill:rgb(100%,100%,100%);fill-opacity:0.0784314;" d="M 2.976562 4.15625 C 2.703125 4.15625 2.480469 4.378906 2.480469 4.652344 L 2.480469 8.679688 C 8.019531 7.984375 13.800781 7.617188 19.75 7.617188 C 20.277344 7.617188 20.808594 7.621094 21.335938 7.628906 L 21.335938 4.652344 C 21.335938 4.378906 21.113281 4.15625 20.839844 4.15625 Z M 2.976562 4.15625 "/>
<path style=" stroke:none;fill-rule:nonzero;fill:rgb(3.921569%,5.098039%,5.490196%);fill-opacity:0.235294;" d="M 1.488281 7.132812 L 22.328125 7.132812 L 22.328125 7.628906 L 1.488281 7.628906 Z M 1.488281 7.132812 "/>
<path style=" stroke:none;fill-rule:nonzero;fill:url(#linear3);" d="M 2.480469 3.164062 C 1.929688 3.164062 1.488281 3.605469 1.488281 4.15625 L 1.488281 7.132812 L 22.328125 7.132812 L 22.328125 4.15625 C 22.328125 3.605469 21.882812 3.164062 21.335938 3.164062 Z M 2.480469 3.164062 "/>
<path style=" stroke:none;fill-rule:nonzero;fill:url(#linear4);" d="M 11.90625 3.164062 L 11.90625 7.132812 L 22.328125 7.132812 L 22.328125 4.15625 C 22.328125 3.605469 21.882812 3.164062 21.335938 3.164062 Z M 11.90625 3.164062 "/>
<path style=" stroke:none;fill-rule:nonzero;fill:rgb(100%,100%,100%);fill-opacity:0.392157;" d="M 2.480469 3.222656 C 1.929688 3.222656 1.488281 3.664062 1.488281 4.214844 L 1.488281 4.472656 C 1.488281 3.921875 1.929688 3.480469 2.480469 3.480469 L 21.335938 3.480469 C 21.882812 3.480469 22.328125 3.921875 22.328125 4.472656 L 22.328125 4.214844 C 22.328125 3.664062 21.882812 3.222656 21.335938 3.222656 Z M 2.480469 3.222656 "/>
<path style="fill-rule:nonzero;fill:url(#linear5);stroke-width:3;stroke-linecap:round;stroke-linejoin:miter;stroke:rgb(12.941177%,12.941177%,12.941177%);stroke-opacity:1;stroke-miterlimit:4;" d="M 333.38483 -121.008976 C 342.133995 -121.008976 349.216651 -113.926319 349.216651 -105.177154 C 349.216651 -96.42799 342.133995 -89.262007 333.38483 -89.262007 C 324.635666 -89.262007 317.469683 -96.42799 317.469683 -105.177154 C 317.469683 -113.926319 324.635666 -121.008976 333.38483 -121.008976 Z M 333.38483 -121.008976 " transform="matrix(0.0468795,0,0,0.0468795,0,10.079087)"/>
<path style="fill-rule:nonzero;fill:url(#linear6);stroke-width:3;stroke-linecap:round;stroke-linejoin:miter;stroke:rgb(12.941177%,12.941177%,12.941177%);stroke-opacity:1;stroke-miterlimit:4;" d="M 386.296444 -121.008976 C 395.045608 -121.008976 402.128265 -113.926319 402.128265 -105.177154 C 402.128265 -96.42799 395.045608 -89.262007 386.296444 -89.262007 C 377.547279 -89.262007 370.381297 -96.42799 370.381297 -105.177154 C 370.381297 -113.926319 377.547279 -121.008976 386.296444 -121.008976 Z M 386.296444 -121.008976 " transform="matrix(0.0468795,0,0,0.0468795,0,10.079087)"/>
<path style="fill-rule:nonzero;fill:url(#linear7);stroke-width:3;stroke-linecap:round;stroke-linejoin:miter;stroke:rgb(12.941177%,12.941177%,12.941177%);stroke-opacity:1;stroke-miterlimit:4;" d="M 439.208058 -121.008976 C 447.957222 -121.008976 455.123205 -113.926319 455.123205 -105.177154 C 455.123205 -96.42799 447.957222 -89.262007 439.208058 -89.262007 C 430.458893 -89.262007 423.292911 -96.42799 423.292911 -105.177154 C 423.292911 -113.926319 430.458893 -121.008976 439.208058 -121.008976 Z M 439.208058 -121.008976 " transform="matrix(0.0468795,0,0,0.0468795,0,10.079087)"/>
<path style="fill:none;stroke-width:3;stroke-linecap:round;stroke-linejoin:miter;stroke:rgb(12.941177%,12.941177%,12.941177%);stroke-opacity:1;stroke-miterlimit:4;" d="M 52.911614 -147.506445 L 455.123205 -147.506445 C 466.788757 -147.506445 476.28785 -138.59063 476.28785 -127.508355 L 476.28785 213.54241 C 476.28785 224.541359 466.788757 233.5405 455.123205 233.5405 L 52.911614 233.5405 C 41.246061 233.5405 31.746968 224.541359 31.746968 213.54241 L 31.746968 -127.508355 C 31.746968 -138.59063 41.246061 -147.506445 52.911614 -147.506445 Z M 52.911614 -147.506445 " transform="matrix(0.0468795,0,0,0.0468795,0,10.079087)"/>
<path style=" stroke:none;fill-rule:nonzero;fill:rgb(100%,100%,100%);fill-opacity:1;" d="M 2.480469 3.222656 C 1.929688 3.222656 1.488281 3.664062 1.488281 4.214844 L 1.488281 4.472656 C 1.488281 3.921875 1.929688 3.480469 2.480469 3.480469 L 11.90625 3.480469 L 11.90625 3.222656 Z M 2.480469 3.222656 "/>
<path style="fill:none;stroke-width:1.414214;stroke-linecap:butt;stroke-linejoin:miter;stroke:rgb(12.941177%,12.941177%,12.941177%);stroke-opacity:1;stroke-miterlimit:4;" d="M 253.975747 -62.847863 L 253.975747 -147.506445 " transform="matrix(0.0468795,0,0,0.0468795,0,10.079087)"/>
<path style="fill:none;stroke-width:3;stroke-linecap:butt;stroke-linejoin:miter;stroke:rgb(12.941177%,12.941177%,12.941177%);stroke-opacity:1;stroke-miterlimit:4;" d="M 31.746968 -62.847863 L 476.28785 -62.847863 " transform="matrix(0.0468795,0,0,0.0468795,0,10.079087)"/>
</g>
</svg>
